X:1
T:Jama Campay, LM
T:Jama Campay, LM
T:James Baden Powell (1842-1931)
T:Public Domain Courtesy of the Cyber Hymnal™
C:James Baden Powell (1842-1931)
Z:Public Domain
Z:Courtesy of the Cyber Hymnal™
%%score ( 1 2 ) ( 3 4 )
L:1/8
Q:1/4=100
M:4/4
K:G
V:1 treble 
V:2 treble 
V:3 bass 
V:4 bass 
V:1
 D2 [DE][DF] [DG]2 [FA]2 | [GB]2 [Gc]2 [Gd]4 | d2 [Ec][DB] [CA]2 [B,B]2 | [B,G]2 [CA]2 [DF]4 | %4
 D2 [DE][DF] G3 [FA] | [GB]2 [Gc][=Fd] [Ee]4 | [Ad][Gc][FB][FA] G2 (cB) | [GA]2 [FA]2 [DG]4 |] %8
V:2
 D2 x6 | x8 | (GF) x6 | x8 | D2 G3 x3 | x8 | x4 (FE) G2 | x8 |] %8
V:3
 D2 D[CD] [B,D]2 [A,D]2 | [G,D]2 [E,C]2 [B,,G,]4 | [B,,G,]2 [C,G,][C,G,] [D,G,]2 [^D,F,]2 | %3
 E,2 [A,,A,]2 [D,A,]4 | D2 D[CD] ([B,D][CE][B,D])[A,D] | D2 ([E,C][D,B,]) [C,C]4 | %6
 [D,F][D,E][D,D][D,C] [E,B,]2 E2 | (EA,) (DC) [G,,G,B,]4 |] %8
V:4
 D2 D x5 | x8 | x8 | E,2 x6 | (D,D)D x5 | (G,=F,) x6 | x6 (A,,B,,) | C,2 D,2 x4 |] %8

